icons/assets/dark/svelte.svg

<svg width="48" height="48" viewBox="0 0 48 48" fill="none" xmlns="http://www.w3.org/2000/svg">
<path d="M17.5363 23.9697C20.4257 21.6852 24.9351 18.1198 24.9351 18.1198M24.9351 18.1198L29.9277 13.7784M24.9351 18.1198C27.2938 16.6562 33.0619 13.2224 37.9593 18.1198C39.1524 19.3128 42.3175 23.9697 37.0736 29.2137L23.1844 40.675C20.2319 42.5539 14.5153 43.0169 11.3742 38.7961C9.3746 36.1091 9.0341 33.2504 10.5536 31.0797M30.6614 23.9697L23.9181 29.2137M23.9181 29.2137L18.2701 34.2152M23.9181 29.2137C20.6069 32.1459 13.8551 33.1923 9.87647 29.2137C7.59705 26.9343 7.16143 22.2004 9.87647 19.4854L24.6514 7.13834C27.604 5.25944 33.3204 5.28846 36.4616 9.50929C38.0435 11.6349 38.9135 13.8612 37.4403 17.176" stroke="#62646A" stroke-width="3.5" stroke-linecap="round"/>
</svg>

<svg width="48" height="48" fill="none" xmlns="http://www.w3.org/2000/svg"><path d="M17.536 23.97l7.4-5.85m0 0l4.992-4.342m-4.993 4.342c2.359-1.464 8.127-4.898 13.024 0 1.193 1.193 4.358 5.85-.885 11.094l-13.89 11.461c-2.952 1.879-8.669 2.342-11.81-1.879-2-2.687-2.34-5.546-.82-7.716m20.107-7.11l-6.743 5.244m0 0l-5.648 5.001m5.648-5.001c-3.311 2.932-10.063 3.978-14.042 0-2.279-2.28-2.715-7.014 0-9.729L24.651 7.138c2.953-1.879 8.67-1.85 11.81 2.371 1.583 2.126 2.453 4.352.98 7.667" stroke="#62646A" stroke-width="3.5" stroke-linecap="round"/></svg>
